X: 37237
T: Siun's
R: reel
M: 4/4
K: Dmajor
|:d2AG FGAF|G2BG FGAc|dAAG FAdf|efge fdd/d/d|
d2AG FGAF|G2BG FGAc|defd gfec|Aceg fddA:|
|:G2BG FGAF|EFGF FDD/D/D|GABG FGA/B/c|dAAG FDDF|
G2BG FGAF|EDEF GABc|defd gfec|Aceg fdd/d/d:|
|:eAAG GAAd|eAfA gfeg|fdd/d/d d3e|fdaf defd|
eAA/A/A eAae|fdd/d/d fdad|e2ef gfed|daag fg ef:|

